assets/images/licon_default_pin.svg

<svg height="36" viewBox="0 0 21 36" width="21" xmlns="http://www.w3.org/2000/svg"><path d="m7.875 22.285v11.015l1.548 2.322c.15685602.2328597.41923773.3724748.7.3724748.2807623 0 .543144-.1396151.7-.3724748l1.552-2.322v-11.015c-1.4862831.286882-3.01371688.286882-4.5 0zm2.25-22.285c-5.59188309 0-10.125 4.53311691-10.125 10.125 0 5.5918831 4.53311691 10.125 10.125 10.125 5.5918831 0 10.125-4.5331169 10.125-10.125 0-5.59188309-4.5331169-10.125-10.125-10.125zm0 5.344c-2.63933101.00275591-4.77824409 2.14166899-4.781 4.781-.01565331.454553-.38867759.8149526-.8435.8149526s-.82784669-.3603996-.8435-.8149526c.003858-3.57113079 2.89786921-6.465142 6.469-6.469.4661283 0 .844.37787167.844.844s-.3778717.844-.844.844z" fill="#72604a"/></svg>

<?xml version="1.0" encoding="UTF-8"?>
<svg width="21px" height="36px" viewBox="0 0 21 36" version="1.1" xmlns="http://www.w3.org/2000/svg" xmlns:xlink="http://www.w3.org/1999/xlink">
    <title>icon_default_pin</title>
    <g id="Page-1" stroke="none" stroke-width="1" fill="none" fill-rule="evenodd">
        <g id="icon_default_pin" fill="#72604A" fill-rule="nonzero">
            <path d="M7.875,22.285 L7.875,33.3 L9.423,35.622 C9.57985602,35.8548597 9.84223773,35.9944748 10.123,35.9944748 C10.4037623,35.9944748 10.666144,35.8548597 10.823,35.622 L12.375,33.3 L12.375,22.285 C10.8887169,22.571882 9.36128312,22.571882 7.875,22.285 L7.875,22.285 Z M10.125,0 C4.53311691,0 0,4.53311691 0,10.125 C0,15.7168831 4.53311691,20.25 10.125,20.25 C15.7168831,20.25 20.25,15.7168831 20.25,10.125 C20.25,4.53311691 15.7168831,0 10.125,0 Z M10.125,5.344 C7.48566899,5.34675591 5.34675591,7.48566899 5.344,10.125 C5.32834669,10.579553 4.95532241,10.9399526 4.5005,10.9399526 C4.04567759,10.9399526 3.67265331,10.579553 3.657,10.125 C3.660858,6.55386921 6.55486921,3.659858 10.126,3.656 C10.5921283,3.656 10.97,4.03387167 10.97,4.5 C10.97,4.96612833 10.5921283,5.344 10.126,5.344 L10.125,5.344 Z" id="Shape"></path>
        </g>
    </g>
</svg>
